public/social-icons/instagram.svg

<svg id="Layer_1" height="512" viewBox="0 0 60 60" width="512" xmlns="http://www.w3.org/2000/svg"><g><path d="m30 20.83c-5.06 0-9.17 4.11-9.17 9.17s4.11 9.18 9.17 9.18 9.18-4.12 9.18-9.18-4.12-9.17-9.18-9.17z"/><path d="m43.84 5h-27.68c-6.15 0-11.16 5.01-11.16 11.16v27.68c0 6.16 5.01 11.16 11.16 11.16h27.68c6.16 0 11.16-5 11.16-11.16v-27.68c0-6.15-5-11.16-11.16-11.16zm-13.84 41.2c-8.93 0-16.2-7.27-16.2-16.2s7.27-16.19 16.2-16.19 16.2 7.26 16.2 16.19-7.27 16.2-16.2 16.2zm16.54-29.45c-1.89 0-3.43-1.53-3.43-3.42s1.54-3.43 3.43-3.43 3.43 1.54 3.43 3.43-1.54 3.42-3.43 3.42z"/></g></svg>

<svg width="512" height="512" viewBox="0 0 60 60" xmlns="http://www.w3.org/2000/svg" xmlns:xlink="http://www.w3.org/1999/xlink" id="Layer_1" overflow="hidden"><g><path d="M30 20.83C24.94 20.83 20.83 24.94 20.83 30 20.83 35.06 24.94 39.18 30 39.18 35.06 39.18 39.18 35.06 39.18 30 39.18 24.94 35.06 20.83 30 20.83Z" fill="#FFFFFF"/><path d="M43.84 5 16.16 5C10.01 5 5 10.01 5 16.16L5 43.84C5 50 10.01 55 16.16 55L43.84 55C50 55 55 50 55 43.84L55 16.16C55 10.01 50 5 43.84 5ZM30 46.2C21.07 46.2 13.8 38.93 13.8 30 13.8 21.07 21.07 13.81 30 13.81 38.93 13.81 46.2 21.07 46.2 30 46.2 38.93 38.93 46.2 30 46.2ZM46.54 16.75C44.65 16.75 43.11 15.22 43.11 13.33 43.11 11.44 44.65 9.9 46.54 9.9 48.43 9.9 49.97 11.44 49.97 13.33 49.97 15.22 48.43 16.75 46.54 16.75Z" fill="#FFFFFF"/></g></svg>
